X:1
T:Buxtehude - Aria:  La Capricciosa in G Minor.
%%score { ( 1 3 ) | ( 2 4 ) }
L:1/8
Q:1/4=100
M:4/4
K:G
V:1 treble nm="Harpsichord" snm="Hch."
V:3 treble 
V:2 bass 
V:4 bass 
V:1
!f!"^Partita 21" Pd2 d2 Pe2 e2 | dedc MB2 G2 | BcdB eadg | z/ c'/ z/ b/ z/ a/ z/ f/ Mg2 g2 :: %4
 z/ A/B/4c/4B/4c/4 d2 z/ G/A/B/ c2 | z/ A/B/c/ dc MB2 G2 | z/ a/g/f/ g/d/e/=f/ Me2- e/c/d/e/ | %7
 A/c/B/d/ A/B/TF/>G/ G2 G2 :| %8
V:2
 G,,/B,,/D,/G,/ B,/G,/D,/B,/ C/G,/E,/C,/ A,/B,/A,/G,/ | %1
 F,/A,/G,/C/ B,/G/A,/F/ G/G,/B,/D/ z/ E/D/C/ | D x x2 CF,G,B,, | C,C,,D,,D, z/ (G,,/B,,/D,/) G,2 :: %4
 G,A,B,G, CB, A,2 | DCB,A, G,4 | z A, B,2 z/ D/C/B,/ C/A,/B,/C/ | %7
 F,/A,/G,/B,,/ C,/C,,/D,, z/ (G,,/B,,/D,/) G,2 :| %8
V:3
 x8 | x8 | z/ G/ z/ G/ z/ G/ z/ G/ z/ G/ z/ c/ z/ B/ z/ d/ | [eg][df][ce][Ac] [Bd]2 [Bd]2 :: %4
 x2 z/ G/A/B/ E2 z/ G/A/G/ | F2- F/MGF/ G/E/D/C/ D/B,/C/D/ | x8 | x6 [B,D]2 :| %8
V:4
 x8 | x8 | G,A,B,G, x4 | x8 :: x8 | x8 | G,3 G, x4 | x8 :| %8

